lib/svgs/transform-status.svg

<?xml version="1.0" encoding="UTF-8"?>
<svg width="16px" height="16px" viewBox="0 0 16 16" version="1.1" xmlns="http://www.w3.org/2000/svg" xmlns:xlink="http://www.w3.org/1999/xlink">
    <!-- Generator: sketchtool 51.3 (57544) - http://www.bohemiancoding.com/sketch -->
    <title>app/transform-status</title>
    <desc>Created with sketchtool.</desc>
    <defs></defs>
    <g id="Icons" stroke="none" stroke-width="1" fill="none" fill-rule="evenodd">
        <g id="Web" transform="translate(-342.000000, -665.000000)" fill="#000000">
            <g id="app/transform-status" transform="translate(342.000000, 665.000000)">
                <path d="M7.003,9.9416 C7.237,9.7076 7.237,9.3276 7.003,9.0926 L4.521,6.6106 C4.287,6.3766 3.907,6.3766 3.672,6.6106 C3.438,6.8456 3.438,7.2256 3.672,7.4596 L5.131,8.9186 L0.6,8.9186 C0.268,8.9186 4.4408921e-16,9.1866 4.4408921e-16,9.5186 C4.4408921e-16,9.8496 0.268,10.1186 0.6,10.1186 L5.129,10.1186 L3.672,11.5746 C3.438,11.8096 3.438,12.1896 3.672,12.4226 C3.79,12.5406 3.943,12.5986 4.097,12.5986 C4.25,12.5986 4.404,12.5406 4.521,12.4226 L7.003,9.9416 L7.003,9.9416 Z M14.7996,10.364 C14.7996,10.798 14.4336,11.164 13.9996,11.164 L13.1586,11.164 L13.1586,5.841 C13.1586,4.741 12.2586,3.841 11.1586,3.841 L5.8356,3.841 L5.8356,3 C5.8356,2.566 6.2016,2.2 6.6356,2.2 L13.9996,2.2 C14.4336,2.2 14.7996,2.566 14.7996,3 L14.7996,10.364 Z M13.9996,1 L6.6356,1 C5.5356,1 4.6356,1.9 4.6356,3 L4.6356,3.841 L3.7946,3.841 C2.6946,3.841 1.7946,4.741 1.7946,5.841 L1.7946,7.2 C1.7946,7.53 2.0646,7.8 2.3946,7.8 C2.7246,7.8 2.9946,7.53 2.9946,7.2 L2.9946,5.841 C2.9946,5.407 3.3606,5.041 3.7946,5.041 L11.1586,5.041 C11.5926,5.041 11.9586,5.407 11.9586,5.841 L11.9586,13.205 C11.9586,13.639 11.5926,14.005 11.1586,14.005 L3.7946,14.005 C3.3606,14.005 2.9946,13.639 2.9946,13.205 L2.9946,11.895 C2.9946,11.546 2.7246,11.261 2.3946,11.261 C2.0646,11.261 1.7946,11.546 1.7946,11.895 L1.7946,13.205 C1.7946,14.305 2.6946,15.205 3.7946,15.205 L11.1586,15.205 C12.2586,15.205 13.1586,14.305 13.1586,13.205 L13.1586,12.364 L13.9996,12.364 C15.0996,12.364 15.9996,11.464 15.9996,10.364 L15.9996,3 C15.9996,1.9 15.0996,1 13.9996,1 L13.9996,1 Z" id="transform-status"></path>
            </g>
        </g>
    </g>
</svg>

<svg xmlns="http://www.w3.org/2000/svg" viewBox="0 0 16 16">
    <path d="M7.003 9.942a.601.601 0 0 0 0-.85L4.521 6.612a.601.601 0 0 0-.849.849l1.459 1.459H.6a.6.6 0 1 0 0 1.2h4.529l-1.457 1.456a.6.6 0 1 0 .849.848l2.482-2.481zm7.797.422a.81.81 0 0 1-.8.8h-.841V5.841c0-1.1-.9-2-2-2H5.836V3c0-.434.366-.8.8-.8H14c.434 0 .8.366.8.8v7.364zM14 1H6.636c-1.1 0-2 .9-2 2v.841h-.841c-1.1 0-2 .9-2 2V7.2c0 .33.27.6.6.6.33 0 .6-.27.6-.6V5.841c0-.434.366-.8.8-.8h7.364c.434 0 .8.366.8.8v7.364a.81.81 0 0 1-.8.8H3.795a.81.81 0 0 1-.8-.8v-1.31a.62.62 0 0 0-.6-.634.62.62 0 0 0-.6.634v1.31c0 1.1.9 2 2 2h7.364c1.1 0 2-.9 2-2v-.841h.84c1.1 0 2-.9 2-2V3c0-1.1-.9-2-2-2z"/>
</svg>
